svg/forum_remove.svg

<svg xmlns="http://www.w3.org/2000/svg" viewBox="0 0 24 24"><path d="M21 6h-2v6.1c1.2.2 2.2.7 3 1.4V7c0-.5-.5-1-1-1M6 17c0 .5.5 1 1 1h5c0-1.1.3-2.1.8-3H6zM16 2H3c-.5 0-1 .5-1 1v14l4-4h8.7c.7-.5 1.5-.8 2.3-.9V3c0-.5-.5-1-1-1m4.12 12.46 1.42 1.42L19.41 18l2.13 2.12-1.42 1.42L18 19.41l-2.12 2.13-1.41-1.42L16.59 18l-2.12-2.12 1.41-1.41L18 16.59z"/></svg>

<svg xmlns="http://www.w3.org/2000/svg" id="mdi-forum-remove" viewBox="0 0 24 24"><path d="M21 6H19V12.1C20.2 12.3 21.2 12.8 22 13.5V7C22 6.5 21.5 6 21 6M6 17C6 17.5 6.5 18 7 18H12C12 16.9 12.3 15.9 12.8 15H6V17M16 2H3C2.5 2 2 2.5 2 3V17L6 13H14.7C15.4 12.5 16.2 12.2 17 12.1V3C17 2.5 16.5 2 16 2M20.12 14.46L21.54 15.88L19.41 18L21.54 20.12L20.12 21.54L18 19.41L15.88 21.54L14.47 20.12L16.59 18L14.47 15.88L15.88 14.47L18 16.59L20.12 14.46Z" /></svg>
